X: 2
T: Captain Campbell
R: strathspey
M: 4/4
L: 1/8
K: Amin
EAAB c2BA|GBdc B/2G3/2GD| EAAB cBce |3(dcB) gB B/2A3/2 A2:|Aaag abge|dBgd BAGB|Aaag abge|dBgB B/2A3/2AG|Aaag abge|dBgd BAGB |A^GAB cBcd|3(efg) dg B/2A3/2 A2||


Tune 1557	Setting 14959

